src/themes/standard/img/search.min.svg

<svg xmlns="http://www.w3.org/2000/svg" width="16" height="16"><style type="text/css">.icon-canvas-transparent{opacity:0;fill:#F6F6F6;} .icon-vs-out{fill:#F6F6F6;} .icon-vs-bg{fill:#424242;} .icon-vs-fg{fill:#F0EFF1;}</style><path d="M16 16H0V0h16v16z" class="icon-canvas-transparent"/><path d="M11.1 0C13.9.5 16 2.9 16 5.8c0 3.3-2.6 5.9-5.9 5.9-.6 0-1.3-.1-1.9-.3L3.6 16h-.9L0 13.4v-1.2l4.5-4.5c-.2-.6-.3-1.3-.3-1.9C4.2 2.9 6.3.5 9.1 0h2" class="icon-vs-out"/><path d="M1.3 13.1l1.6 1.6 4.8-4.8c.6.3 1 .8 2.4.8 2.7 0 4.9-2.2 4.9-4.9C15 3.2 12.8 1 10.2 1 7.5 1 5.4 3.2 5.4 5.8c0 1.6.4 1.8.8 2.4l-4.9 4.9zm5.1-7.3C6.4 3.7 8 2 10.1 2s3.8 1.7 3.8 3.8c0 2.1-1.7 3.8-3.8 3.8-2 0-3.7-1.7-3.7-3.8" class="icon-vs-bg"/><path d="M6.4 5.8C6.4 3.7 8 2 10.1 2s3.8 1.7 3.8 3.8c0 2.1-1.7 3.8-3.8 3.8-2 0-3.7-1.7-3.7-3.8" class="icon-vs-fg"/></svg>

<svg viewBox="0 0 16 16" x="0" y="0" width="16" height="16" version="1.1" xmlns="http://www.w3.org/2000/svg" xml:space="preserve"><style type="text/css">
	.icon-canvas-transparent{opacity:0;fill:#F6F6F6;}
	.icon-vs-out{fill:#F6F6F6;}
	.icon-vs-bg{fill:#424242;}
	.icon-vs-fg{fill:#F0EFF1;}
</style><path class="icon-canvas-transparent" d="M16 16H0V0h16V16Z"/><path class="icon-vs-out" d="M11.1 0C13.9 0.5 16 2.9 16 5.8c0 3.3-2.6 5.9-5.9 5.9 -0.6 0-1.3-0.1-1.9-0.3L3.6 16H2.7L0 13.4v-1.2l4.5-4.5c-0.2-0.6-0.3-1.3-0.3-1.9 0-2.9 2.1-5.3 4.9-5.8H11.1"/><path class="icon-vs-bg" d="M1.3 13.1l1.6 1.6 4.8-4.8c0.6 0.3 1 0.8 2.4 0.8C12.8 10.7 15 8.5 15 5.8 15 3.2 12.8 1 10.2 1 7.5 1 5.4 3.2 5.4 5.8c0 1.6 0.4 1.8 0.8 2.4L1.3 13.1ZM6.4 5.8c0-2.1 1.6-3.8 3.7-3.8 2.1 0 3.8 1.7 3.8 3.8 0 2.1-1.7 3.8-3.8 3.8C8.1 9.6 6.4 7.9 6.4 5.8"/><path class="icon-vs-fg" d="M6.4 5.8c0-2.1 1.6-3.8 3.7-3.8 2.1 0 3.8 1.7 3.8 3.8 0 2.1-1.7 3.8-3.8 3.8C8.1 9.6 6.4 7.9 6.4 5.8"/></svg>
